svg/fluentui-system-icons/ic_fluent_database_32_regular.svg

<svg width="32" height="32" viewBox="0 0 32 32" fill="none" xmlns="http://www.w3.org/2000/svg">
<path d="M27 7C27 4.23858 22.0751 2 16 2C9.92487 2 5 4.23858 5 7V25C5 27.7614 9.92487 30 16 30C22.0751 30 27 27.7614 27 25V7ZM25 7C25 7.11415 24.8069 7.87102 22.9506 8.7148C21.2748 9.47652 18.8193 10 16 10C13.1807 10 10.7252 9.47652 9.04943 8.7148C7.19311 7.87102 7 7.11415 7 7C7 6.88585 7.19311 6.12898 9.04943 5.2852C10.7252 4.52348 13.1807 4 16 4C18.8193 4 21.2748 4.52348 22.9506 5.2852C24.8069 6.12898 25 6.88585 25 7ZM25 9.87553V25C25 25.1142 24.8069 25.871 22.9506 26.7148C21.2748 27.4765 18.8193 28 16 28C13.1807 28 10.7252 27.4765 9.04943 26.7148C7.19311 25.871 7 25.1142 7 25V9.87553C8.99073 11.1605 12.2797 12 16 12C19.7203 12 23.0093 11.1605 25 9.87553Z" fill="#212121"/>
</svg>

<svg xmlns="http://www.w3.org/2000/svg" width="32" height="32"><path d="M27 7c0-2.761-4.925-5-11-5S5 4.239 5 7v18c0 2.761 4.925 5 11 5s11-2.239 11-5V7Zm-2 0c0 .114-.193.871-2.05 1.715C21.276 9.477 18.82 10 16 10c-2.82 0-5.275-.523-6.95-1.285C7.192 7.87 7 7.115 7 7c0-.114.193-.871 2.05-1.715C10.724 4.523 13.18 4 16 4c2.82 0 5.275.523 6.95 1.285C24.808 6.13 25 6.885 25 7Zm0 2.876V25c0 .114-.193.871-2.05 1.715C21.276 27.477 18.82 28 16 28c-2.82 0-5.275-.523-6.95-1.285C7.192 25.87 7 25.115 7 25V9.876C8.99 11.16 12.28 12 16 12c3.72 0 7.01-.84 9-2.124Z"/></svg>
